X: 20109
T: Jimmy Ward's
R: jig
M: 6/8
K: Gmajor
|:G3 GAB|AGE GED|~G3 AGE|GED DEF|
G3 GAB|AGE GAB|cBA BGE|1 DED DEF:|2 DED D2B||
|:c2A BAG|ABA AGE|cBA BGE|DED DAB|
c2A BAG|ABA ABc|dcA AGE|1 DED D2B:|2 DED DEF||

